images/standarts/standart-2.svg

<svg width="25" height="24" viewBox="0 0 25 24" fill="none" xmlns="http://www.w3.org/2000/svg">
<g clip-path="url(#clip0_68_4508)">
<path d="M20.5 20C20.5 20.2652 20.3946 20.5196 20.2071 20.7071C20.0196 20.8946 19.7652 21 19.5 21H5.5C5.23478 21 4.98043 20.8946 4.79289 20.7071C4.60536 20.5196 4.5 20.2652 4.5 20V11H1.5L11.827 1.61198C12.0111 1.44446 12.2511 1.35162 12.5 1.35162C12.7489 1.35162 12.9889 1.44446 13.173 1.61198L23.5 11H20.5V20ZM7.5 11V13C8.15661 13 8.80679 13.1293 9.41342 13.3806C10.02 13.6319 10.5712 14.0002 11.0355 14.4644C11.4998 14.9287 11.8681 15.4799 12.1194 16.0866C12.3707 16.6932 12.5 17.3434 12.5 18H14.5C14.5 16.1435 13.7625 14.363 12.4497 13.0502C11.137 11.7375 9.35652 11 7.5 11ZM7.5 15V18H10.5C10.5 17.2043 10.1839 16.4413 9.62132 15.8787C9.05871 15.3161 8.29565 15 7.5 15Z" fill="white"/>
</g>
<defs>
<clipPath id="clip0_68_4508">
<rect width="24" height="24" fill="white" transform="translate(0.5)"/>
</clipPath>
</defs>
</svg>

<svg width="25" height="24" fill="none" xmlns="http://www.w3.org/2000/svg"><g clip-path="url(#clip0_68_4508)"><path d="M20.5 20a1 1 0 01-1 1h-14a1 1 0 01-1-1v-9h-3l10.327-9.388a1 1 0 011.346 0L23.5 11h-3v9zm-13-9v2a5 5 0 015 5h2a7 7 0 00-7-7zm0 4v3h3a3 3 0 00-3-3z" fill="#fff"/></g><defs><clipPath id="clip0_68_4508"><path fill="#fff" transform="translate(.5)" d="M0 0h24v24H0z"/></clipPath></defs></svg>
